src/img/section-services/clean.svg

<svg height="511pt" viewBox="-5 1 511 511.999" width="511pt" xmlns="http://www.w3.org/2000/svg"><path d="m141.746094 243.050781h288.511718v40.257813h-348.636718v-40.257813h39.757812v-15.027343h-54.78125v97.050781l40.761719 29.316406h115.890625v32.949219l8.519531 13.886718v110.773438h48.34375v-110.773438l8.515625-13.886718v-32.949219h48.832032v-15.027344c-73.996094 0 148.53125 0-225.257813 0l-30.582031-21.988281v-19.039062h348.640625v19.039062l-30.582031 21.988281h-41.851563v15.027344h46.695313l40.761718-29.316406c0-24.515625 0-79.1875 0-97.050781h-303.539062zm123.34375 253.921875h-18.296875v-93.226562h18.296875zm8.515625-113.871094-3.445313 5.617188h-28.4375l-3.445312-5.617188v-28.710937h35.328125zm0 0"/><path d="m500.878906 79.296875h-15.527344v-15.527344h-15.027343v15.527344h-15.527344v15.027344h15.527344v15.523437h15.027343v-15.523437h15.527344zm0 0"/><path d="m31.050781 148.171875h-15.023437v15.523437h-15.527344v15.027344h15.527344v15.527344h15.023437v-15.527344h15.527344v-15.027344h-15.527344zm0 0"/><path d="m85.394531 0h15.027344v189.960938h-15.027344zm0 0"/><path d="m166.910156 50.085938h15.027344v139.875h-15.027344zm0 0"/><path d="m248.425781 0h15.027344v189.960938h-15.027344zm0 0"/><path d="m329.945312 50.085938h15.023438v139.875h-15.023438zm0 0"/><path d="m411.460938 0h15.023437v189.960938h-15.023437zm0 0"/><path d="m276.191406 327.363281h-15.027344v-15.027343h15.027344zm-25.042968 0h-15.027344v-15.027343h15.027344zm0 0"/></svg>

<svg height="511pt" viewBox="-5 1 511 511.999" width="511pt" xmlns="http://www.w3.org/2000/svg"><path d="M141.746 243.05h288.512v40.259H81.62V243.05h39.758v-15.028h-54.78v97.051l40.761 29.317H223.25v32.949l8.52 13.887V512h48.343V401.227l8.516-13.887v-32.95h48.832v-15.027H112.203l-30.582-21.988v-19.04h348.64v19.04l-30.581 21.988h-41.852v15.028h46.695l40.762-29.317v-97.05H141.746zM265.09 496.974h-18.297v-93.227h18.297zm8.515-113.871l-3.445 5.617h-28.437l-3.446-5.617V354.39h35.328zM500.879 79.297h-15.527V63.77h-15.028v15.527h-15.527v15.027h15.527v15.524h15.028V94.324h15.527zM31.05 148.172H16.028v15.523H.5v15.028h15.527v15.527h15.024v-15.527h15.527v-15.028H31.051zM85.395 0h15.027v189.96H85.395zm81.515 50.086h15.028V189.96H166.91zM248.426 0h15.027v189.96h-15.027zm81.519 50.086h15.024V189.96h-15.024zM411.46 0h15.024v189.96h-15.023zm0 0"/><path d="M276.191 327.363h-15.027v-15.027h15.027zm-25.043 0h-15.027v-15.027h15.027zm0 0"/></svg>
